X:71
T:Majecky in London
O:No 71 Wm Clarke MS  Feltwell, Norfolk
N:Have been unable to find out anything about Majecky.
N:Crochets un bars 1+3 shown dotted in MS.
I:abc2nwc
M:6/8
L:1/8
K:D
z|def"^*"A2f|g2f fed|def"^*"A2f|B3d2:|
|:z|d2f a2f|b2g a2f|d2f a2f|f2g a2z|
b2g efg|a2f d2d|d e f A2A|B3d2:|

